pix_core/f/folder.svg

<svg fill="none" preserveAspectRatio="xMinYMid meet" viewBox="0 0 24 24" xmlns="http://www.w3.org/2000/svg"><path clip-rule="evenodd" d="m21.5 17c0 1.3807-1.1193 2.5-2.5 2.5h-14c-1.38071 0-2.5-1.1193-2.5-2.5v-11c0-1.38071 1.11929-2.5 2.5-2.5h3.38197c.56815 0 1.08755.321 1.34164.82918l.08541.17082h9.19098c1.3807 0 2.5 1.11929 2.5 2.5zm-18-11c0-.82843.67157-1.5 1.5-1.5h3.38197c.18938 0 .36251.107.44721.27639l1.44722 2.89443c.2541.50818.7735.82918 1.3416.82918h7.382c.8284 0 1.5.67157 1.5 1.5v7c0 .8284-.6716 1.5-1.5 1.5h-14c-.82843 0-1.5-.6716-1.5-1.5zm6.809-.5h8.691c.8284 0 1.5.67157 1.5 1.5v.99982c-.4178-.31385-.9372-.49982-1.5-.49982h-7.382c-.1894 0-.3625-.107-.4472-.27639z" fill="#fff" fill-rule="evenodd"/></svg>

<svg viewBox="0 0 24 24" fill="none" xmlns="http://www.w3.org/2000/svg" preserveAspectRatio="xMinYMid meet">
<path fill-rule="evenodd" clip-rule="evenodd" d="M21.5 17C21.5 18.3807 20.3807 19.5 19 19.5H5C3.61929 19.5 2.5 18.3807 2.5 17V6C2.5 4.61929 3.61929 3.5 5 3.5H8.38197C8.95012 3.5 9.46952 3.821 9.72361 4.32918L9.80902 4.5H19C20.3807 4.5 21.5 5.61929 21.5 7V17ZM3.5 6C3.5 5.17157 4.17157 4.5 5 4.5H8.38197C8.57135 4.5 8.74448 4.607 8.82918 4.77639L10.2764 7.67082C10.5305 8.179 11.0499 8.5 11.618 8.5H19C19.8284 8.5 20.5 9.17157 20.5 10V17C20.5 17.8284 19.8284 18.5 19 18.5H5C4.17157 18.5 3.5 17.8284 3.5 17V6ZM10.309 5.5H19C19.8284 5.5 20.5 6.17157 20.5 7V7.99982C20.0822 7.68597 19.5628 7.5 19 7.5H11.618C11.4286 7.5 11.2555 7.393 11.1708 7.22361L10.309 5.5Z" fill="#fff"/>
</svg>
